!!!COM: Anon.
!!!OCL: Francis James Child
!!!OPR: The English and Scottish Popular Ballads
!!!OVM: Vol. 1
!!!ONB: Ballad No. 11, Tune No. 1
!!!ONM: No. 11
!!!PDT: 1882
!!!YEM: Public domain.
**kern
*M4/4
{8c
=1
4e
4g
4.g
8g
=2
4cc
4b
4.a}
!! Second phrase:
{8a
=3
4g
4g
4.g
8a
=4
4cc
4cc
4.ff}
!! Third phrase:
{8ff
=5
4ee
4gg
4dd
8dd
8cc
=6
4a
4g
8g
8a}
!! Fourth phrase:
{8cc
8dd
=7
4ee
4ee
4.dd
8cc
=8
4a
4g
4.g}
====
*-
!!!OCY: Britain; England
!!!PPP: Boston
!!!ODT: <1882
!!!AFR: folk song
!!!AST: monophony
!!!AMT: simple quadruple
!!!SCA: Child Collection
!!!AIN: vox
!!!EEV: 1.0
!!!RDT: 1987 June
!!!YER: 1994 August 10
!!!VTS: 652652838
